!!!COA: des Prez, Josquin
!!!CDT: ~1450-1521/08/27
!!!OTL: Si bibero
!!!AGN: Motet
!!!SCT: Jos9919
!!!SCA: Jos9919
!!!voices: 3
**kern	**kern	**kern
*part3	*part2	*part1
*staff3	*staff2	*staff1
*Ivox	*Ivox	*Ivox
*I"Contra	*I"Tenor	*I"Superius
*I'C	*I'T	*I'S
*clefF4	*clefGv2	*clefG2
*k[]	*k[]	*k[]
*a:	*a:	*a:
*M2/1	*M2/1	*M2/1
*met(C|)	*met(C|)	*met(C|)
=1	=1	=1
0E	0r	0r
=2	=2	=2
1F	0r	0r
1E	.	.
=3	=3	=3
0G	0B	0r
=4	=4	=4
1A	1c	0r
1G	1B	.
=5	=5	=5
0F	0d	0r
=6	=6	=6
0E	[0e	0b
=7	=7	=7
1A	0e]	1cc
1G	.	1b
=8	=8	=8
1.F	0f	0dd
4E	.	.
4D	.	.
=9	=9	=9
2.C	[0e	1ee
4D	.	.
4E	.	2r
4F	.	.
2G	.	2b
=10	=10	=10
!	!	!LO:TX:Z=18:t=Formschneider&colon; M-c'' 2Sm-b'a'
2.A	0e]	2.cc
4G	.	4b
2E	.	2g
2G	.	[2b
=11	=11	=11
2F	2c	2b]
2D	2d	2a
2E	1B	2g
2G	.	[2b
=12	=12	=12
2F	2c	4b]
.	.	4a
2D	2d	1a
2E	1B	.
2G	.	2g
=13	=13	=13
2F	2c	1a
2D	2d	.
1E	1B	1r
=14	=14	=14
1AA	2A	0r
.	2.c	.
[1E	.	.
.	4B	.
.	[2B	.
=15	=15	=15
1E]	2B]	0r
.	1e	.
1F	.	.
.	[2d	.
=16	=16	=16
1E	2d]	0r
.	1c	.
1D	.	.
.	[2B	.
=17	=17	=17
1C	2B]	0r
.	1A	.
1BB	.	.
.	2G#Xi	.
=18	=18	=18
1AA	0A	1.e
2r	.	.
[2A	.	[2f
=19	=19	=19
2A]	0r	4f]
.	.	4e
2G	.	1e
1F	.	.
.	.	2d
=20	=20	=20
2E	2B	[0e
2.AA	1c	.
4BB	.	.
4C	4B	.
4D	4A	.
=21	=21	=21
2E	2G	0e_
2AA	1A	.
1E	.	.
.	2G#Xi	.
=22	=22	=22
2AA	1.A	0e]
2C	.	.
2BB	.	.
[2C	4G	.
.	4F	.
=23	=23	=23
2C]	1E	0g
4BB	.	.
4AA	.	.
1BB	1r	.
=24	=24	=24
2r	0e	1.a
2.AA	.	.
4BB	.	.
4C	.	4g
4D	.	4f
=25	=25	=25
2E	2B	2g
1C	1c	1e
[2D	[2A	[2f
=26	=26	=26
2D]	4A]	4f]
.	4G	4e
2C	4F	1e
.	4E	.
1D	1F	.
.	.	2d
=27	=27	=27
2.AA	1E	1e
4BB	.	.
4C	[1e	2r
4D	.	.
[2E	.	[2g
=28	=28	=28
4E]	1e]	4g]
4F	.	4a
4G	.	4b
4A	.	4cc
1F	1d	1a
=29	=29	=29
1E	2e	2g
.	2g	2e
2D	2f	2r
2E	[2e	2g
=30	=30	=30
1F	2e]	1a
.	2d	.
1E	2e	2g
.	2g	2e
=31	=31	=31
2D	2f	2r
2E	1e	2g
1F	.	1a
.	2d	.
=32	=32	=32
1E	2e	2g
.	2g	2e
2D	2f	2r
2E	[2e	2g
=33	=33	=33
1F	2e]	1a
.	2d	.
1E	2e	2.g
.	[2g	.
.	.	4f
=34	=34	=34
0r	4g]	4e
.	4f	4d
.	4e	1c
.	4d	.
.	1c	.
.	.	[2cc
=35	=35	=35
1G	1d	2cc]
.	.	2b
1A	1c	1cc
=36	=36	=36
2F	2r	2a
2G	2d	2b
2E	2e	2g
2F	2c	2a
=37	=37	=37
2D	2d	2f
2E	2B	2g
2C	2c	2e
2D	2A	2f
=38	=38	=38
2BB	2B	2d
1C	2G	1e
.	2E	.
2AA	[2A	2c
=39	=39	=39
1BB	2A]	1d
.	2G#Xi	.
1AA	2A	1c
.	2c	.
=40	=40	=40
1E	2B	0r
.	1e	.
1F	.	.
.	2d	.
=41	=41	=41
1E	0e	1b
1AA	.	1cc
=42	=42	=42
1E	2r	2b
.	1e	2g
1F	.	1a
.	2d	.
=43	=43	=43
1E	0e	2g
.	.	2b
1AA	.	1cc
=44	=44	=44
1E	2r	2b
.	1e	2g
1F	.	1a
.	2d	.
=45	=45	=45
2E	2e	2g
2G	2d	2b
2.A	2c	2.cc
.	[2f	.
4G	.	4b
=46	=46	=46
2A	4f]	2cc
.	4e	.
2F	2f	2a
2.G	2d	2.b
.	[2e	.
4F	.	4a
=47	=47	=47
2G	4e]	2b
.	4d	.
2E	2e	2g
2.F	2c	2.a
.	[2d	.
4E	.	4g
=48	=48	=48
2F	4d]	2a
.	4c	.
2D	2d	2f
2.E	2B	2.g
.	[2c	.
4D	.	4f
=49	=49	=49
2E	4c]	2g
.	4B	.
2C	2c	2e
[1D	[1A	[1f
=50	=50	=50
2D]	1A]	2f]
2AA	.	2e
1C	1G	[1e
=51	=51	=51
0D	0F	1e]
.	.	1d
=52	=52	=52
1AA	2E	0e
.	1A	.
1E	.	.
.	2G	.
=53	=53	=53
1AA	2A	2e
.	2c	1a
2r	1B	.
2E	.	2g#Xi
=54	=54	=54
[0F	1A	[0a
.	2r	.
.	[2c	.
=55	=55	=55
0F]	2c]	0a]
.	2A	.
.	2c	.
.	2d	.
=56	=56	=56
1E	1e	1g
2F	2r	2a
[2G	[2d	[2b
=57	=57	=57
2G]	2d]	2b]
2E	1c	2cc
1D	.	1dd
.	2B	.
=58	=58	=58
1C	1c	0ee
2r	[1g	.
2c	.	.
=59	=59	=59
2B	0g]	2dd
2.c	.	2.ee
4B	.	4dd
2G	.	2b
=60	=60	=60
1A	[0e	1cc
2G	.	2b
[2A	.	[2cc
=61	=61	=61
4A]	1e]	4cc]
4G	.	4b
2E	.	2g
1F	[1c	1a
=62	=62	=62
2E	0c]	2g
2.F	.	2.a
4E	.	4g
2C	.	2e
=63	=63	=63
2G	2B	2d
2C	2c	1g
1D	1A	.
.	.	[2f
=64	=64	=64
2E	2G	4f]
.	.	4e
2AA	2A	1e
1D	1F	.
.	.	2d
=65	=65	=65
0AA	2E	0e
.	2.A	.
.	4B	.
.	4c	.
.	4d	.
=66	=66	=66
1A	2e	0r
.	2f	.
1G	2g	.
.	4f	.
.	4e	.
=67	=67	=67
1A	2f	0r
.	1e	.
1F	.	.
.	2d	.
=68	=68	=68
1E	1e	1.b
1r	1d	.
.	.	4a
.	.	4b
=69	=69	=69
0r	1e	2cc
.	.	1b
.	1c	.
.	.	2a
=70	=70	=70
1E	1.B	1b
1D	.	1r
.	4A	.
.	4B	.
=71	=71	=71
1E	2c	1r
.	1B	.
1C	.	1cc
.	2A	.
=72	=72	=72
2BB	2B	2dd
2GG	1.d	2.b
1G	.	.
.	.	4a
.	.	2b
=73	=73	=73
2A	2c	2e
2F	2A	1a
1E	1B	.
.	.	2g
=74	=74	=74
2AA	2A	2a
2.E	2B	2.g
.	1c	.
4C	.	4e
[2F	.	[2a
=75	=75	=75
4F]	1d	4a]
4D	.	4f
2.G	.	2.b-Xi
.	1e	.
4E	.	4g
[2A	.	[2cc
=76	=76	=76
4A]	2c	4cc]
4G	.	4b
2F	2d	2a
2E	1e	2g
[2A	.	[2cc
=77	=77	=77
4A]	2c	4cc]
4G	.	4b
2F	2d	2a
2.E	2e	2g
.	2f	2a
4D	.	.
=78	=78	=78
2E	2e	2g
2A	2f	2cc
2G	1g	2b
[2c	.	[2ee
=79	=79	=79
4c]	2e	4ee]
4B	.	4dd
2A	2f	2cc
2G	2g	2b
2D	2f	2a
=80	=80	=80
2E	2.e	2cc
2A	.	2a
.	4c	.
2G	2d	2b
2E	2e	2g
=81	=81	=81
2F	2d	2a
2E	2e	2g
2A	2c	2cc
2G	2d	[2b
=82	=82	=82
1F	4A	4b]
.	4B	4a
.	4c	1a
.	4d	.
1E	1B	.
.	.	2g#Xi
=83	=83	=83
0AAl	0Al	0al
==	==	==
*-	*-	*-
!!!RDF**kern: l=long note in original notation
!!!system-decoration: s1,s2,s3
!!!RDF**kern: i = editorial accidental
!!!ENC: Jesse Rodin 19 October 2020
!!!END: 2020/10/19/
!!!EED: Jesse Rodin
!!!EEV: 2020/10/23/
!!attribution-level@Jos: 4a (the rest [double question mark])
!!!ONB: Translated from MusicXML and edited on 2021/03/21 by Craig Sapp
!!muse2ps: C^@{COA}??\n@{SCT}; attrib. in Warsaw 564^i2I150v95,95,150Q16c80
